X:95
T:95 The French Assembly
C:Welch MS
I:abc2nwc
M:3/8
L:1/16
K:G
c2cBcA|B2BABG|A2AFAF|G2E2E2|c2cBcA|B2BABG|A2AFAF|G6|
c2cBcA|B2BABG|A2AFAF|G2E2E2|c2cBcA|B2BABG|A2AFAF|G6|
G2g2g2|G2g2g2|agfedc|BcdBG2|G2g2g2|G2g2g2|fafde^c|d6|
c2cBcA|B2BABG|A2AFAF|G2E2E2|c2cBcA|B2BABG|A2AFAF|G6:|

